; generated by PrusaSlicer 2.6.1+MacOS-x64 on 2023-10-11 at 14:08:40 UTC


;
;
; 

; external perimeters extrusion width = 0.45mm
; perimeters extrusion width = 0.45mm
; infill extrusion width = 0.45mm
; solid infill extrusion width = 0.45mm
; top infill extrusion width = 0.40mm
; first layer extrusion width = 0.42mm

M73 P0 R30
M73 Q0 S30
M201 X1000 Y1000 Z200 E5000 ; sets maximum accelerations, mm/sec^2
M203 X200 Y200 Z12 E120 ; sets maximum feedrates, mm / sec
M204 S1250 T1250 ; sets acceleration (S) and retract acceleration (R), mm/sec^2
M205 X8.00 Y8.00 Z0.40 E4.50 ; sets the jerk limits, mm/sec
M205 S0 T0 ; sets the minimum extruding and travel feed rate, mm/sec
;TYPE:Custom
M862.3 P "MK3S" ; printer model check
M862.1 P0.4 ; nozzle diameter check
M115 U3.13.0 ; tell printer latest fw version
G90 ; use absolute coordinates
M83 ; extruder relative mode
M104 S215 ; set extruder temp
M140 S60 ; set bed temp
M190 S60 ; wait for bed temp
M109 S215 ; wait for extruder temp
G28 W ; home all without mesh bed level
G80 ; mesh bed leveling

G1 Z0.2 F720
G1 Y-3 F1000 ; go outside print area
G92 E0
G1 X60 E9 F1000 ; intro line
G1 X100 E12.5 F1000 ; intro line

G92 E0
M221 S95

; Don't change E values below. Excessive value can damage the printer.
M907 E430 ; set extruder motor current
G21 ; set units to millimeters
G90 ; use absolute coordinates
M83 ; use relative distances for extrusion
M900 K0.05 ; Filament gcode LA 1.5
M900 K30 ; Filament gcode LA 1.0
M107
;LAYER_CHANGE
;Z:0.2
;HEIGHT:0.2
;BEFORE_LAYER_CHANGE
G92 E0.0
;0.2


G1 E-.8 F2100
G1 Z.4 F720
;AFTER_LAYER_CHANGE
;0.2
G1 X97.815 Y84.117 F10800
G1 Z.2 F720
G1 E.8 F2100
M204 S800
;TYPE:Skirt/Brim
;WIDTH:0.42
G1 F1200
G1 X98.861 Y83.241 E.04278
G1 X99.801 Y83.047 E.03009
G1 X149.551 Y83.047 E1.55988
G1 X150.858 Y83.439 E.04278
G1 X151.734 Y84.484 E.04275
G1 X151.928 Y85.424 E.03009
G1 X151.928 Y125.224 E1.2479
G1 X151.536 Y126.531 E.04278
G1 X150.491 Y127.407 E.04275
G1 X149.551 Y127.601 E.03009
G1 X99.801 Y127.601 E1.55988
G1 X98.494 Y127.21 E.04277
G1 X97.618 Y126.164 E.04278
G1 X97.424 Y125.224 E.03009
G1 X97.424 Y85.424 E1.2479
G1 X97.798 Y84.174 E.04091
M204 S1000
; printing object Body1.stl id:0 copy 0
;WIPE_START
G1 F8640
G1 X98.861 Y83.241 E-.32658
G1 X99.801 Y83.047 E-.22162
G1 X100.892 Y83.047 E-.2518
;WIPE_END
G1 Z.6 F720
G1 X100.588 Y86.211 F10800
G1 Z.2 F720
G1 E.8 F2100
M204 S800
;TYPE:Perimeter
;WIDTH:0.419999
G1 F1200
G1 X148.764 Y86.211 E1.51052
G1 X148.764 Y124.437 E1.19855
M73 P1 R30
M73 Q1 S30
G1 X100.588 Y124.437 E1.51052
G1 X100.588 Y86.271 E1.19667
M204 S1000
G1 X100.211 Y85.834 F10800
M204 S800
;TYPE:External perimeter
G1 F1200
G1 X149.141 Y85.834 E1.53416
G1 X149.141 Y124.814 E1.22219
G1 X100.211 Y124.814 E1.53416
G1 X100.211 Y85.894 E1.22031
M204 S1000
G1 X100.601 Y85.923 F10800
;WIPE_START
G1 F8640
G1 X103.676 Y85.89 E-.8
;WIPE_END
G1 Z.6 F720
G1 X147.827 Y86.381 F10800
G1 Z.2 F720
G1 E.8 F2100
M204 S800
;TYPE:Solid infill
;WIDTH:0.422098
G1 F1200
G1 X148.425 Y86.978 E.02664
G1 X148.425 Y87.514 E.0169
G1 X147.461 Y86.55 E.04298
G1 X146.925 Y86.55 E.0169
G1 X148.425 Y88.05 E.06688
G1 X148.425 Y88.587 E.01693
G1 X146.388 Y86.55 E.09083
G1 X145.852 Y86.55 E.0169
G1 X148.425 Y89.123 E.11473
G1 X148.425 Y89.659 E.0169
G1 X145.316 Y86.55 E.13863
G1 X144.78 Y86.55 E.0169
G1 X148.425 Y90.195 E.16252
G1 X148.425 Y90.731 E.0169
M73 Q2 S30
G1 X144.244 Y86.55 E.18642
G1 X143.707 Y86.55 E.01693
M73 P2 R30
G1 X148.425 Y91.268 E.21037
G1 X148.425 Y91.804 E.0169
G1 X143.171 Y86.55 E.23427
G1 X142.635 Y86.55 E.0169
G1 X148.425 Y92.34 E.25817
G1 X148.425 Y92.876 E.0169
G1 X142.099 Y86.55 E.28207
G1 X141.562 Y86.55 E.01693
G1 X148.425 Y93.413 E.30601
G1 X148.425 Y93.949 E.0169
G1 X141.026 Y86.55 E.32991
G1 X140.49 Y86.55 E.0169
G1 X148.425 Y94.485 E.35381
G1 X148.425 Y95.021 E.0169
G1 X139.954 Y86.55 E.37771
G1 X139.417 Y86.55 E.01693
G1 X148.425 Y95.558 E.40165
G1 X148.425 Y96.094 E.0169
G1 X138.881 Y86.55 E.42555
G1 X138.345 Y86.55 E.0169
G1 X148.425 Y96.63 E.44945
G1 X148.425 Y97.166 E.0169
G1 X137.809 Y86.55 E.47335
G1 X137.272 Y86.55 E.01693
G1 X148.425 Y97.703 E.49729
G1 X148.425 Y98.239 E.0169
G1 X136.736 Y86.55 E.52119
G1 X136.2 Y86.55 E.0169
M73 P2 R29
G1 X148.425 Y98.775 E.54509
G1 X148.425 Y99.311 E.0169
G1 X135.664 Y86.55 E.56899
G1 X135.127 Y86.55 E.01693
G1 X148.425 Y99.848 E.59294
G1 X148.425 Y100.384 E.0169
G1 X134.591 Y86.55 E.61684
G1 X134.055 Y86.55 E.0169
G1 X148.425 Y100.92 E.64074
G1 X148.425 Y101.456 E.0169
G1 X133.519 Y86.55 E.66464
G1 X132.982 Y86.55 E.01693
G1 X148.425 Y101.993 E.68858
G1 X148.425 Y102.529 E.0169
G1 X132.446 Y86.55 E.71248
G1 X131.91 Y86.55 E.0169
M73 Q2 S29
G1 X148.425 Y103.065 E.73638
G1 X148.425 Y103.601 E.0169
M73 Q3 S29
G1 X131.374 Y86.55 E.76028
G1 X130.838 Y86.55 E.0169
M73 P3 R29
G1 X148.425 Y104.137 E.78418
G1 X148.425 Y104.674 E.01693
G1 X130.301 Y86.55 E.80812
G1 X129.765 Y86.55 E.0169
G1 X148.425 Y105.21 E.83202
G1 X148.425 Y105.746 E.0169
G1 X129.229 Y86.55 E.85592
G1 X128.693 Y86.55 E.0169
G1 X148.425 Y106.282 E.87982
G1 X148.425 Y106.819 E.01693
G1 X128.156 Y86.55 E.90376
G1 X127.62 Y86.55 E.0169
G1 X148.425 Y107.355 E.92766
G1 X148.425 Y107.891 E.0169
G1 X127.084 Y86.55 E.95156
G1 X126.548 Y86.55 E.0169
G1 X148.425 Y108.427 E.97546
G1 X148.425 Y108.964 E.01693
G1 X126.011 Y86.55 E.9994
G1 X125.475 Y86.55 E.0169
G1 X148.425 Y109.5 E1.0233
G1 X148.425 Y110.036 E.0169
G1 X124.939 Y86.55 E1.0472
G1 X124.403 Y86.55 E.0169
M73 P4 R29
M73 Q4 S29
G1 X148.425 Y110.572 E1.0711
G1 X148.425 Y111.109 E.01693
G1 X123.866 Y86.55 E1.09505
G1 X123.33 Y86.55 E.0169
G1 X148.425 Y111.645 E1.11895
G1 X148.425 Y112.181 E.0169
G1 X122.794 Y86.55 E1.14285
G1 X122.258 Y86.55 E.0169
G1 X148.425 Y112.717 E1.16675
G1 X148.425 Y113.254 E.01693
G1 X121.721 Y86.55 E1.19069
G1 X121.185 Y86.55 E.0169
G1 X148.425 Y113.79 E1.21459
G1 X148.425 Y114.326 E.0169
G1 X120.649 Y86.55 E1.23849
G1 X120.113 Y86.55 E.0169
G1 X148.425 Y114.862 E1.26239
G1 X148.425 Y115.398 E.0169
G1 X119.577 Y86.55 E1.28629
G1 X119.04 Y86.55 E.01693
M73 P5 R29
M73 Q5 S29
G1 X148.425 Y115.935 E1.31023
G1 X148.425 Y116.471 E.0169
G1 X118.504 Y86.55 E1.33413
G1 X117.968 Y86.55 E.0169
G1 X148.425 Y117.007 E1.35803
G1 X148.425 Y117.543 E.0169
G1 X117.432 Y86.55 E1.38193
G1 X116.895 Y86.55 E.01693
G1 X148.425 Y118.08 E1.40587
G1 X148.425 Y118.616 E.0169
G1 X116.359 Y86.55 E1.42977
G1 X115.823 Y86.55 E.0169
M73 P5 R28
G1 X148.425 Y119.152 E1.45367
G1 X148.425 Y119.688 E.0169
G1 X115.287 Y86.55 E1.47757
G1 X114.75 Y86.55 E.01693
M73 P6 R28
M73 Q6 S29
G1 X148.425 Y120.225 E1.50152
G1 X148.425 Y120.761 E.0169
G1 X114.214 Y86.55 E1.52541
G1 X113.678 Y86.55 E.0169
M73 Q6 S28
G1 X148.425 Y121.297 E1.54931
G1 X148.425 Y121.833 E.0169
G1 X113.142 Y86.55 E1.57321
G1 X112.605 Y86.55 E.01693
G1 X148.425 Y122.37 E1.59716
G1 X148.425 Y122.906 E.0169
G1 X112.069 Y86.55 E1.62106
G1 X111.533 Y86.55 E.0169
G1 X148.425 Y123.442 E1.64496
G1 X148.425 Y123.978 E.0169
M73 P7 R28
G1 X110.997 Y86.55 E1.66886
G1 X110.46 Y86.55 E.01693
M73 Q7 S28
G1 X148.008 Y124.098 E1.67421
G1 X147.471 Y124.098 E.01693
G1 X109.924 Y86.55 E1.67418
G1 X109.388 Y86.55 E.0169
G1 X146.935 Y124.098 E1.67418
G1 X146.399 Y124.098 E.0169
G1 X108.852 Y86.55 E1.67418
G1 X108.316 Y86.55 E.0169
G1 X145.863 Y124.098 E1.67418
G1 X145.326 Y124.098 E.01693
G1 X107.779 Y86.55 E1.67418
G1 X107.243 Y86.55 E.0169
M73 P8 R28
M73 Q8 S28
G1 X144.79 Y124.098 E1.67418
G1 X144.254 Y124.098 E.0169
G1 X106.707 Y86.55 E1.67418
G1 X106.171 Y86.55 E.0169
G1 X143.718 Y124.098 E1.67418
G1 X143.181 Y124.098 E.01693
G1 X105.634 Y86.55 E1.67418
G1 X105.098 Y86.55 E.0169
G1 X142.645 Y124.098 E1.67418
G1 X142.109 Y124.098 E.0169
G1 X104.562 Y86.55 E1.67418
G1 X104.026 Y86.55 E.0169
G1 X141.573 Y124.098 E1.67418
G1 X141.036 Y124.098 E.01693
M73 P9 R27
M73 Q9 S28
G1 X103.489 Y86.55 E1.67418
G1 X102.953 Y86.55 E.0169
G1 X140.5 Y124.098 E1.67418
G1 X139.964 Y124.098 E.0169
G1 X102.417 Y86.55 E1.67418
G1 X101.881 Y86.55 E.0169
M73 Q9 S27
G1 X139.428 Y124.098 E1.67418
G1 X138.892 Y124.098 E.0169
G1 X101.344 Y86.55 E1.67421
G1 X100.927 Y86.55 E.01315
G1 X100.927 Y86.67 E.00378
G1 X138.355 Y124.098 E1.66886
G1 X137.819 Y124.098 E.0169
G1 X100.927 Y87.206 E1.64496
G1 X100.927 Y87.742 E.0169
M73 P10 R27
M73 Q10 S27
G1 X137.283 Y124.098 E1.62106
G1 X136.747 Y124.098 E.0169
G1 X100.927 Y88.278 E1.59716
G1 X100.927 Y88.815 E.01693
G1 X136.21 Y124.098 E1.57321
G1 X135.674 Y124.098 E.0169
G1 X100.927 Y89.351 E1.54931
G1 X100.927 Y89.887 E.0169
G1 X135.138 Y124.098 E1.52541
G1 X134.602 Y124.098 E.0169
G1 X100.927 Y90.423 E1.50152
G1 X100.927 Y90.96 E.01693
G1 X134.065 Y124.098 E1.47757
G1 X133.529 Y124.098 E.0169
M73 P11 R27
G1 X100.927 Y91.496 E1.45367
G1 X100.927 Y92.032 E.0169
M73 Q11 S27
G1 X132.993 Y124.098 E1.42977
G1 X132.457 Y124.098 E.0169
G1 X100.927 Y92.568 E1.40587
G1 X100.927 Y93.105 E.01693
G1 X131.92 Y124.098 E1.38193
G1 X131.384 Y124.098 E.0169
G1 X100.927 Y93.641 E1.35803
G1 X100.927 Y94.177 E.0169
G1 X130.848 Y124.098 E1.33413
G1 X130.312 Y124.098 E.0169
G1 X100.927 Y94.713 E1.31023
G1 X100.927 Y95.25 E.01693
G1 X129.775 Y124.098 E1.28629
G1 X129.239 Y124.098 E.0169
G1 X100.927 Y95.786 E1.26239
G1 X100.927 Y96.322 E.0169
M73 P12 R27
M73 Q12 S27
G1 X128.703 Y124.098 E1.23849
G1 X128.167 Y124.098 E.0169
G1 X100.927 Y96.858 E1.21459
G1 X100.927 Y97.394 E.0169
M73 P12 R26
G1 X127.631 Y124.098 E1.19069
G1 X127.094 Y124.098 E.01693
G1 X100.927 Y97.931 E1.16675
G1 X100.927 Y98.467 E.0169
G1 X126.558 Y124.098 E1.14285
G1 X126.022 Y124.098 E.0169
G1 X100.927 Y99.003 E1.11895
G1 X100.927 Y99.539 E.0169
M73 Q12 S26
G1 X125.486 Y124.098 E1.09505
G1 X124.949 Y124.098 E.01693
G1 X100.927 Y100.076 E1.0711
G1 X100.927 Y100.612 E.0169
G1 X124.413 Y124.098 E1.0472
G1 X123.877 Y124.098 E.0169
G1 X100.927 Y101.148 E1.0233
G1 X100.927 Y101.684 E.0169
M73 P13 R26
M73 Q13 S26
G1 X123.341 Y124.098 E.9994
G1 X122.804 Y124.098 E.01693
G1 X100.927 Y102.221 E.97546
G1 X100.927 Y102.757 E.0169
G1 X122.268 Y124.098 E.95156
G1 X121.732 Y124.098 E.0169
G1 X100.927 Y103.293 E.92766
G1 X100.927 Y103.829 E.0169
G1 X121.196 Y124.098 E.90376
G1 X120.659 Y124.098 E.01693
G1 X100.927 Y104.366 E.87982
G1 X100.927 Y104.902 E.0169
G1 X120.123 Y124.098 E.85592
G1 X119.587 Y124.098 E.0169
G1 X100.927 Y105.438 E.83202
G1 X100.927 Y105.974 E.0169
G1 X119.051 Y124.098 E.80812
G1 X118.514 Y124.098 E.01693
G1 X100.927 Y106.511 E.78418
G1 X100.927 Y107.047 E.0169
G1 X117.978 Y124.098 E.76028
G1 X117.442 Y124.098 E.0169
G1 X100.927 Y107.583 E.73638
G1 X100.927 Y108.119 E.0169
M73 P14 R26
G1 X116.906 Y124.098 E.71248
G1 X116.369 Y124.098 E.01693
M73 Q14 S26
G1 X100.927 Y108.656 E.68853
G1 X100.927 Y109.192 E.0169
G1 X115.833 Y124.098 E.66464
G1 X115.297 Y124.098 E.0169
G1 X100.927 Y109.728 E.64074
G1 X100.927 Y110.264 E.0169
G1 X114.761 Y124.098 E.61684
G1 X114.225 Y124.098 E.0169
G1 X100.927 Y110.8 E.59294
G1 X100.927 Y111.337 E.01693
G1 X113.688 Y124.098 E.56899
G1 X113.152 Y124.098 E.0169
G1 X100.927 Y111.873 E.54509
G1 X100.927 Y112.409 E.0169
G1 X112.616 Y124.098 E.52119
G1 X112.08 Y124.098 E.0169
G1 X100.927 Y112.945 E.49729
G1 X100.927 Y113.482 E.01693
G1 X111.543 Y124.098 E.47335
G1 X111.007 Y124.098 E.0169
G1 X100.927 Y114.018 E.44945
G1 X100.927 Y114.554 E.0169
G1 X110.471 Y124.098 E.42555
G1 X109.935 Y124.098 E.0169
G1 X100.927 Y115.09 E.40165
G1 X100.927 Y115.627 E.01693
G1 X109.398 Y124.098 E.37771
G1 X108.862 Y124.098 E.0169
G1 X100.927 Y116.163 E.35381
G1 X100.927 Y116.699 E.0169
G1 X108.326 Y124.098 E.32991
G1 X107.79 Y124.098 E.0169
G1 X100.927 Y117.235 E.30601
G1 X100.927 Y117.772 E.01693
G1 X107.253 Y124.098 E.28207
G1 X106.717 Y124.098 E.0169
G1 X100.927 Y118.308 E.25817
G1 X100.927 Y118.844 E.0169
G1 X106.181 Y124.098 E.23427
G1 X105.645 Y124.098 E.0169
G1 X100.927 Y119.38 E.21037
G1 X100.927 Y119.917 E.01693
G1 X105.108 Y124.098 E.18642
G1 X104.572 Y124.098 E.0169
G1 X100.927 Y120.453 E.16252
G1 X100.927 Y120.989 E.0169
G1 X104.036 Y124.098 E.13863
G1 X103.5 Y124.098 E.0169
G1 X100.927 Y121.525 E.11473
G1 X100.927 Y122.061 E.0169
G1 X102.964 Y124.098 E.09083
G1 X102.427 Y124.098 E.01693
G1 X100.927 Y122.598 E.06688
G1 X100.927 Y123.134 E.0169
M73 P15 R26
G1 X101.891 Y124.098 E.04298
G1 X101.355 Y124.098 E.0169
G1 X100.758 Y123.5 E.02664
M204 S1000
; stop printing object Body1.stl id:0 copy 0
M106 S84.15
;LAYER_CHANGE
;Z:0.4
;HEIGHT:0.2
;BEFORE_LAYER_CHANGE
G92 E0.0
;0.4


;WIPE_START
G1 F8640
G1 X101.355 Y124.098 E-.19511
G1 X101.891 Y124.098 E-.12376
G1 X100.927 Y123.134 E-.31479
G1 X100.927 Y122.598 E-.12376
G1 X101.057 Y122.728 E-.04258
;WIPE_END
G1 Z.6 F720
;AFTER_LAYER_CHANGE
;0.4
M104 S210 ; set temperature
G1 X97.424 Y122.728 F10800
G1 Z.4 F720
G1 E.8 F2100
;TYPE:Skirt/Brim
;WIDTH:0.42
G1 F3000
G1 X97.424 Y85.424 E1.16964
G1 X97.815 Y84.117 E.04277
M73 Q15 S26
G1 X98.861 Y83.241 E.04278
G1 X99.801 Y83.047 E.03009
G1 X149.551 Y83.047 E1.55988
G1 X150.858 Y83.439 E.04278
G1 X151.734 Y84.484 E.04275
G1 X151.928 Y85.424 E.03009
G1 X151.928 Y125.224 E1.2479
G1 X151.536 Y126.531 E.04278
G1 X150.491 Y127.407 E.04275
G1 X149.551 Y127.601 E.03009
G1 X99.801 Y127.601 E1.55988
G1 X98.494 Y127.21 E.04277
G1 X97.618 Y126.164 E.04278
G1 X97.424 Y125.224 E.03009
G1 X97.424 Y122.788 E.07638
; printing object Body1.stl id:0 copy 0
;WIPE_START
G1 F8640
G1 X97.424 Y119.323 E-.8
;WIPE_END
G1 Z.8 F720
G1 X100.683 Y86.256 F10800
G1 Z.4 F720
G1 E.8 F2100
M204 S800
;TYPE:Perimeter
;WIDTH:0.449999
G1 F2700
G1 X148.669 Y86.256 E1.62427
G1 X148.669 Y124.392 E1.29086
G1 X100.683 Y124.392 E1.62427
G1 X100.683 Y86.316 E1.28883
M204 S1000
G1 X100.276 Y85.849 F10800
M204 S800
;TYPE:External perimeter
M73 P15 R25
G1 F1500
G1 X149.076 Y85.849 E1.65182
G1 X149.076 Y124.799 E1.31841
G1 X100.276 Y124.799 E1.65182
G1 X100.276 Y85.909 E1.31638
M204 S1000
G1 X100.666 Y85.938 F10800
;WIPE_START
G1 F8640
G1 X103.741 Y85.905 E-.8
;WIPE_END
G1 Z.8 F720
G1 X101.16 Y86.655 F10800
G1 Z.4 F720
G1 E.8 F2100
;TYPE:Solid infill
;WIDTH:0.548766
G1 F4800
G1 X101.115 Y86.611 E.00265
G1 X101.054 Y86.627 E.00265
G1 X101.038 Y86.688 E.00265
G1 X101.082 Y86.733 E.00265
G1 X101.144 Y86.717 E.00269
;WIDTH:0.449999
G1 X101.794 Y86.622 E.02224
G1 X100.983 Y87.439 E.03897
;WIDTH:0.41646
G1 X100.917 Y87.512 E.00306
;WIDTH:0.38292
G1 X100.846 Y87.493 E.00208
G1 X100.865 Y87.564 E.00208
G1 X100.906 Y87.553 E.0012
;WIDTH:0.449999
G1 X101.049 Y87.942 E.01403
G1 X102.369 Y86.622 E.06319
G1 X102.945 Y86.622 E.0195
M73 Q15 S25
G1 X101.049 Y88.518 E.09076
G1 X101.049 Y89.094 E.0195
G1 X103.521 Y86.622 E.11833
G1 X104.097 Y86.622 E.0195
G1 X101.049 Y89.67 E.14591
G1 X101.049 Y90.245 E.01946
G1 X104.672 Y86.622 E.17343
G1 X105.248 Y86.622 E.0195
G1 X101.049 Y90.821 E.201
G1 X101.049 Y91.397 E.0195
G1 X105.824 Y86.622 E.22858
G1 X106.399 Y86.622 E.01946
G1 X101.049 Y91.972 E.2561
G1 X101.049 Y92.548 E.0195
G1 X106.975 Y86.622 E.28367
G1 X107.551 Y86.622 E.0195
M73 P16 R25
G1 X101.049 Y93.124 E.31125
G1 X101.049 Y93.699 E.01946
G1 X108.126 Y86.622 E.33877
G1 X108.702 Y86.622 E.0195
G1 X101.049 Y94.275 E.36634
G1 X101.049 Y94.851 E.0195
G1 X109.278 Y86.622 E.39392
G1 X109.853 Y86.622 E.01946
M73 Q16 S25
G1 X101.049 Y95.427 E.42147
G1 X101.049 Y96.002 E.01946
G1 X110.429 Y86.622 E.44901
G1 X111.005 Y86.622 E.0195
G1 X101.049 Y96.578 E.47659
G1 X101.049 Y97.154 E.0195
G1 X111.581 Y86.622 E.50416
G1 X112.156 Y86.622 E.01946
G1 X101.049 Y97.729 E.53169
G1 X101.049 Y98.305 E.0195
G1 X112.732 Y86.622 E.55926
G1 X113.308 Y86.622 E.0195
G1 X101.049 Y98.881 E.58683
G1 X101.049 Y99.456 E.01946
G1 X113.883 Y86.622 E.61436
G1 X114.459 Y86.622 E.0195
G1 X101.049 Y100.032 E.64193
G1 X101.049 Y100.608 E.0195
G1 X115.035 Y86.622 E.6695
G1 X115.61 Y86.622 E.01946
G1 X101.049 Y101.183 E.69703
G1 X101.049 Y101.759 E.0195
G1 X116.186 Y86.622 E.7246
G1 X116.762 Y86.622 E.0195
G1 X101.049 Y102.335 E.75217
G1 X101.049 Y102.911 E.0195
G1 X117.338 Y86.622 E.77974
G1 X117.913 Y86.622 E.01946
G1 X101.049 Y103.486 E.80727
G1 X101.049 Y104.062 E.0195
G1 X118.489 Y86.622 E.83484
G1 X119.065 Y86.622 E.0195
G1 X101.049 Y104.638 E.86241
